X:1
T:James Gibb editions
T:Princeps gloriosissime - Palestrina
T:#
%%score [ 1 2 3 4 ]
L:1/8
Q:1/4=180
M:4/2
K:F
V:1 treble nm="Soprano" snm="S"
V:2 treble nm="Alto" snm="A"
V:3 treble-8 nm="Tenor" snm="T"
V:4 bass nm="Bass" snm="B"
V:1
"^G. P. da Palestrina\n(1526-94)""^Arr. James Gibb" z16 |"^Princeps gloriosissime" z16 | z16 | %3
w: |||
 z16 | z16 | z16 | z16 | G16 | F12 D4 | F4 G4 A6 A2 | A4 c8 =B4 | c8 A4 B4 | A4 G4 (F6 G2 | %13
w: ||||Prin-|ceps glo-|ri- o- sis- si-|me, Mi- cha-|el Arch- an-|ge- le, Mi\- *|
 A4) G4 c4 B4 | A4 G4 A8 | (B6 A2 G4) F4 | D4 G4 G4 ^F4 | G4 B8 B4 | c4 d4 _e8 | d16- | d8 z4 B4- | %21
w: * cha- el Arch-|an- ge- le,|Mi\- * * cha-|el Arch- an- ge-|li, e- sto|me- mor no-|stri,|* e\-|
 B4 B4 B4 A4 | G8 F8- | F8 z8 | z16 | z4 F4 A4 A4 | B8 A4 (B4- | B2 A2 G6 ^F2 F4) | G8 ^F8 | %29
w: * sto me- mor|no stri:|||hic et u-|bi- que sem\-||per pre-|
 G8 B4 B4 | (d12 c4 | B8) A4 D4 | E4 ^F4 (G2 A2 B2 G2 | A4 B6 A2 G4- | G4 ^F4) G8 | z4 d4 c4 A4 | %36
w: ca- re pro|no\- *|* bis Fi-|li- um De\- * * *||* * i,|Fi- li- um|
 (B2 c2 d4) D4 F4 | E4 C4 (D8 | E8) ^F4 D4 | E4 G4 (^F2 E2 D2 E2 | ^F2 G2 A2 B2 c4 d4- | %41
w: De\- * * i, Fi-|li- um De\-|* i. Al-|le- lu- ia, * * *||
 d4 ^c4 d8) | z16 | z4 d4 c4 B4 | (A8 G4) B4 | A4 (G6 F2 F4 | D4 _E4 C8) | D4 d6 c2 B4 | %48
w: ||al- le lu-|ia, * al-|le- lu\- * *||ia, al- le- lu-|
 A4 G8 ^F4 | (G2 A2 B2 c2) d8- |[Q:1/4=178] d4[Q:1/4=175] d4[Q:1/4=172] (B4[Q:1/4=169] c4) | %51
w: ia, al- le-|lu\- * * * ia,|* al- le\- *|
[Q:1/4=161] d16 |[Q:1/4=156] d16 |] %53
w: lu-|ia.|
V:2
 z16 | z8 G8- | G8 F8- | F4 D4 F4 G4 | A6 A2 A4 c4- | c4 B4 A4 (G4- | G2 F2 F4) (G6 F2 | _E12) E4 | %8
w: |Prin\-|* ceps|* glo ri- o-|sis- si- me, Mi\-|* cha- el Arch\-|* * * an\- *|* ge-|
 D16 | z16 | z8 z4 F4- | F4 E4 F4 D4 | F4 E4 (D8 | C8) z8 | z4 G8 ^F4 | G8 d8 | d4 c4 (d6 c2 | %17
w: le,||Mi\-|* cha- el Arch-|an- ge- le,||Mi- cha-|el Arch-|an- ge- le, *|
 B4) G8 G4 | G4 F4 (G4 A4 | B6 A2 G8 | F6 E2) D4 d4- | d4 d4 d4 c4 | c8 A4 A4 | c4 c4 d8 | %24
w: * e- sto|me- mor no- *||* * stri, e\-|* sto me- mor|no- stri: hic|et u- bi-|
 (c4 d8 c2 B2 | A8)"^O bone Jesu,exaudi me - Palestrina" z8 | z4 D4 F4 F4 | G8 A8 | B8 A4 B4 | %29
w: que * * *||hic et u-|bi- que|sem- per pre-|
 c8 F8 | F8 G8 | d12 d4 | c4 A4 (B2 c2 d2 B2 | c4 d4) (G8 | A8) B8 | A4 G8 ^F4 | G4 G4 F4 D4 | %37
w: ca- re|pro no-|bis Fi-|li- um De\- * * *|* * i,|* Fi-|li- um De-|i, Fi- li- um|
 (E4 F6 D2 d4- | d4 ^c4) d4 d4 | c4 =B4 (A2 G2 ^F2 E2 | D2 E2 ^F2 D2 E4 D4 | A6 G2 ^F4) G4 | %42
w: De\- * * *|* * i. A1-|le- lu- a, * * *||* * * al-|
 ^F4 E4 D4 G4 | F4 B4 A4 G4- | G4 ^F4 G8 | A4 c4 B4 (A4- | A2 G2 G8 ^F4) | (G2 A2 B2 c2 d8) | %48
w: le- lu- ia, al-|le- lu- ia, al\-|* le- lu-|ía, al- le- lu\-||ia, * * * *|
 z8 z4 D4 | _E4 G4 (F2 =E2 D2 E2 | F2 G2) A6 G2 (G4- | G4 ^F2 E2 F8) | G16 |] %53
w: al-|le- lu- ia, * * *|* * al- le- lu\-||ia.|
V:3
 z16 | z16 | z16 | z16 | z16 | z8 c8- | c8 B8- | B4 G4 B4 c4 | d6 d2 d4 B4 | A4 c8 d4 | %10
w: |||||Prin\-|* ceps|* glo- ri- o-|sis- si- me, Mi-|cha- el Arch-|
 (c2 B2 A2 G2 F4) F4 | G8 z8 | z4 c8 =B4 | c8 A4 d4- | d4 ^c4 d8 | z4 B8 A4 | B4 G4 B4 A4 | G8 z8 | %18
w: an\- * * * * ge-|le,|Mi- cha-|el Arch- an\-|* ge- le,|Mi- cha-|el Arch- an- ge-|li,|
 z16 | z4 B8 B4 | B4 A4 (G8- | G4 F2 E2 F8) | C8 z4 F4 | A4 A4 (B4 A2 G2 | A8 B8) | c4 A4 c4 c4 | %26
w: |e- sto|me- mor no\-||stri: hic|et u- bi\- * *||que, hic et u-|
 d16 | (B6 c2 d8) | d8 d4 d4 | e8 d8- | d4 c4 (B4 A4 | G8) ^F8 | z16 | z16 | z8 z4 G4 | %35
w: bi-|que * *|sem- per pre-|ca- re|* pro no\- *|* bis|||Fi-|
 F4 D4 _E4 D4- | D4 B4 A4 F4 | (G4 A8 G4) | A16 | z16 | z8 z4 G4 | F4 E4 D4 B4 | A4 G4 (B6 c2 | %43
w: li- um De- i,|* Fi- li- um|De\- * *|i.||Al-|le- lu- ia, al-|le- lu- ia, *|
 d8) z8 | z4 A4 B4 (d4- | d2 c2 c4) d8 | z4 G4 A4 c4 | (B2 A2 G2 A2 B2 c2 d2 B2 | c2 B2 A2 G2 A8) | %49
w: |al- le- lu\-|* * * ia,|al- le- lu-|ia, * * * * * * *||
 G6 (FE) (D4 B4) | A4 F4 G8 | A16 | =B16 |] %53
w: al- le\- * lu\- *|ia, al- le-|lu-|ia.|
V:4
 C,16 | B,,12 G,,4 | B,,4 C,4 D,6 D,2 | D,4 F,8 E,4 | F,4 D,4 F,4 E,4 | (D,8 C,6 B,,2 | %6
w: Prin-|ceps glo-|ri- o- sis- si-|me, Mi- cha-|el Arch- an- ge-|le, * *|
 A,,8 G,,8) | z16 | B,,8 B,,4 B,,4 | D,4 E,4 F,4 D,4 | (F,6 E,2 D,8 | C,8) z8 | z8 z4 F,4- | %13
w: ||prin- ceps glo-|ri- o- sis- si-|me, * *||Mi\-|
 F,4 E,4 F,4 D,4 | F,4 E,4 D,8 | (G,,6 A,,2 B,,2 C,2 D,4) | B,,4 _E,4 D,8 | z4 _E,8 E,4 | %18
w: * cha- el Arch-|an- ge- le,|Arch\- * * * *|an- ge- le,|e- sto|
 _E,4 D,4 C,8 | B,,4 G,,8 G,,4 | B,,4 D,4 (G,,6 A,,2 | B,,6 C,2 D,2 E,2 F,4- | F,4 E,4) F,8 | %23
w: me- mor no|stri, e- sto|me- mor no\- *||* * stri:|
 z8 z4 D,4 | F,4 F,4 G,8 | F,16 | z4 B,,4 D,4 D,4 | _E,8 D,8 | G,,8 D,4 D,4 | C,8 B,,8- | %30
w: hic|et u- bi-|que|hic et u-|bi- que|sem- per pre-|ca- re|
 B,,4 A,,4 G,,8- | G,,8 D,8 | z8 z4 G,4 | F,4 D,4 _E,8 | D,8 G,,8 | A,,4 B,,4 (C,4 D,4) | %36
w: * pro no\-|* bis|Fi-|li- um De-|i, Fi-|li- um De\- *|
 G,,8 z4 D,4 | C,4 A,,4 (B,,8 | A,,8) D,8 | z16 | z4 D,4 C,4 B,,4 | A,,8 z4 G,,4 | %42
w: i, Fi-|li- um De\-|* i.||Al- le- lu-|ia, al|
 A,,4 C,4 (B,,2 A,,2 G,,2 A,,2 | B,,2 C,2 D,2 E,2 F,4 G,4 | D,8) z4 G,4 | F,4 E,4 D,6 C,2 | %46
w: le- lu ia, * * *||* al-|le- lu- ia, *|
 B,,4 C,4 A,,8 | G,,8 z4 G,4 | F,4 E,4 D,8 | z4 G,,4 (B,,6 C,2 | D,8 _E,8) | D,16 | G,,16 |] %53
w: |* al-|le- lu- ía,|al- le\- *||lu-|ia.|

